X: 8670
T: Crossing The Channel
R: slip jig
M: 9/8
K: Dmajor
|:B|A2 A AFA B2 d|f2 f fed e2 f|a2 a afd c2 A|Bcd gec d2:|
|:f|a2 a aba f2 d|g2 f ged c2 A|a2 a aba f2 d|BB/c/d gec d2:|
|:c/B/|ABA AF/G/A Bcd|fgf fed ee/f/g|aba afd cBA|d2 f gec d2:|
|:f/g/|afa aba fed|gf/g/a ged cBA|af/g/a aba fed|dd/e/f g2 c d2:|

